X:1
T: H.M.S. Invincible
C:Muriel Johnstone
R:Reel
Q: 232
K:D
M:4/4
L:1/8
|:A2|d3d A2 d2|Bc d2 A4|Bc d2 A2 d2|F2 E2 E2 A2|
d3d A2 d2|Bc d2 A4|GA B2 A2 f2|e2 d2 d2:|
|:e2|f3f F2 f2|e2 dc d4|e3e B2 d2|d2 cB cA Bc|
d3d c2 e2|ed cB A4|GA B2 A2 f2|e2 d2 d2:|
